luts/Colorify Cinematic Standard LUT.cube
LUT_3D_SIZE 16
0.024591 0.024165 0.022764
0.016025 0.022429 0.022649
0.054295 0.032529 0.032847
0.096697 0.041224 0.040544
0.142748 0.049268 0.046690
0.182614 0.055786 0.051188
0.225300 0.059703 0.054902
0.271373 0.065464 0.058352
0.313076 0.075261 0.063668
0.374281 0.084708 0.068947
0.520132 0.103273 0.079950
0.624432 0.132064 0.098379
0.707972 0.168963 0.121669
0.787310 0.199733 0.143387
0.842072 0.224918 0.161649
0.892292 0.247565 0.178042
0.021390 0.011940 0.022435
0.035254 0.028261 0.027327
0.067435 0.047629 0.037604
0.110679 0.062778 0.045089
0.154522 0.072971 0.050788
0.199535 0.085160 0.056608
0.241660 0.094099 0.060388
0.285996 0.106457 0.066089
0.357506 0.113757 0.068659
0.467332 0.123278 0.073440
0.561366 0.141078 0.084260
0.613964 0.156745 0.098670
0.676549 0.175589 0.111726
0.738638 0.200033 0.128634
0.795534 0.221016 0.144857
0.828308 0.232421 0.153382
0.041494 0.059962 0.039141
0.060230 0.070479 0.042863
0.081808 0.079914 0.045924
0.126830 0.096516 0.051345
0.165518 0.105000 0.055127
0.209119 0.118329 0.059944
0.256221 0.134258 0.065764
0.321543 0.140777 0.066584
0.414819 0.147534 0.068376
0.501401 0.158378 0.074387
0.560473 0.174129 0.087083
0.636287 0.191316 0.104305
0.691444 0.202473 0.116652
0.748720 0.221619 0.134311
0.799642 0.237523 0.145881
0.825241 0.243448 0.151900
0.054484 0.104131 0.048795
0.071880 0.113068 0.050851
0.102528 0.123191 0.052920
0.150969 0.136690 0.053179
0.187582 0.146869 0.057647
0.228186 0.162942 0.067310
0.284626 0.170977 0.066637
0.360899 0.176869 0.064304
0.440861 0.185818 0.066913
0.505363 0.200359 0.078076
0.573787 0.213928 0.091087
0.639826 0.229994 0.107488
0.706799 0.246183 0.122588
0.765794 0.260697 0.138577
0.821333 0.278013 0.154849
0.848438 0.284795 0.161659
0.063159 0.149665 0.054548
0.085648 0.158216 0.056929
0.128307 0.165957 0.055042
0.174461 0.175760 0.052563
0.212229 0.187598 0.058703
0.247574 0.200810 0.067591
0.315949 0.214305 0.063757
0.389924 0.222048 0.063095
0.450277 0.233461 0.071162
0.525143 0.247193 0.084339
0.595152 0.260190 0.097511
0.669797 0.279415 0.116484
0.728089 0.293323 0.130275
0.789890 0.311964 0.150112
0.846159 0.328565 0.166143
0.882072 0.345583 0.177769
0.070182 0.190401 0.058496
0.098624 0.202261 0.062185
0.140772 0.212970 0.065535
0.174978 0.223442 0.069346
0.217350 0.241117 0.067435
0.274647 0.256236 0.064017
0.338116 0.266844 0.060970
0.400471 0.277791 0.067470
0.471737 0.290951 0.078369
0.550221 0.307022 0.093427
0.617507 0.319160 0.106832
0.694321 0.337775 0.126005
0.756042 0.352932 0.142903
0.823178 0.373314 0.163765
0.872957 0.387061 0.180020
0.908275 0.401887 0.192136
0.081266 0.237230 0.063434
0.112421 0.250706 0.067869
0.155222 0.260298 0.072722
0.193018 0.281563 0.069572
0.233052 0.298765 0.063687
0.290854 0.315078 0.061114
0.349714 0.322179 0.064753
0.421990 0.340052 0.075467
0.493833 0.351988 0.087255
0.569700 0.367014 0.102791
0.644104 0.384877 0.120669
0.717104 0.401233 0.139678
0.780305 0.417092 0.155585
0.847401 0.432669 0.176747
0.899771 0.449593 0.195109
0.936548 0.462547 0.207891
0.091081 0.284132 0.068124
0.128605 0.299023 0.074045
0.165703 0.320498 0.073616
0.201371 0.348626 0.067131
0.250948 0.368114 0.064600
0.310486 0.376528 0.068535
0.373993 0.391661 0.075622
0.448786 0.409428 0.086962
0.525724 0.426172 0.102301
0.602567 0.442315 0.119062
0.677151 0.458303 0.136259
0.752972 0.476579 0.155749
0.823583 0.494002 0.177652
0.882717 0.508749 0.198902
0.931528 0.519284 0.213247
0.965824 0.534013 0.235177
0.107697 0.332020 0.076914
0.142535 0.365468 0.076879
0.172566 0.399624 0.071526
0.218876 0.419193 0.070275
0.275432 0.430633 0.076518
0.333577 0.443729 0.084995
0.401017 0.465782 0.092881
0.474352 0.482470 0.103211
0.552719 0.499017 0.118116
0.633633 0.518561 0.137374
0.708821 0.535902 0.157739
0.787241 0.553704 0.178631
0.851889 0.567427 0.195946
0.908175 0.578877 0.215453
0.949674 0.582627 0.225127
0.979466 0.597024 0.263347
0.131400 0.404779 0.080991
0.170094 0.448409 0.081908
0.194513 0.476026 0.081589
0.240955 0.482914 0.085153
0.298097 0.503837 0.092937
0.359636 0.520533 0.102858
0.426515 0.539189 0.112904
0.504026 0.559603 0.125494
0.588708 0.582847 0.140134
0.669203 0.600906 0.158616
0.747616 0.618161 0.176132
0.817882 0.630939 0.197240
0.877129 0.643629 0.217379
0.932217 0.652825 0.234981
0.971177 0.655402 0.255065
0.992218 0.665651 0.310612
0.164459 0.487454 0.089686
0.203516 0.528076 0.094397
0.222369 0.528213 0.095836
0.264556 0.548837 0.104103
0.320259 0.567510 0.112645
0.383953 0.588995 0.123466
0.454314 0.611450 0.134847
0.536797 0.637128 0.149483
0.618469 0.659103 0.163201
0.698520 0.676785 0.177928
0.774732 0.691610 0.198991
0.843388 0.704018 0.217535
0.901748 0.713663 0.238174
0.951920 0.718381 0.250036
0.986826 0.724079 0.298971
0.996458 0.725846 0.351584
0.202519 0.563415 0.107996
0.231842 0.580918 0.108486
0.253123 0.594830 0.114522
0.285427 0.612257 0.121415
0.343081 0.635128 0.129683
0.410561 0.661289 0.144970
0.482889 0.685052 0.157768
0.564605 0.711285 0.172736
0.650623 0.733631 0.188580
0.730493 0.753109 0.203166
0.803453 0.767027 0.221305
0.869704 0.777239 0.240005
0.924058 0.781861 0.257623
0.971336 0.779241 0.267957
0.995580 0.785697 0.367230
0.997609 0.781143 0.368685
0.232874 0.623666 0.122874
0.257345 0.634553 0.125207
0.283141 0.653574 0.134559
0.307528 0.673798 0.141467
0.368305 0.703810 0.154372
0.436338 0.725607 0.165959
0.509604 0.752481 0.179962
0.589397 0.773888 0.194165
0.673963 0.796030 0.211062
0.749389 0.812172 0.224173
0.825711 0.829957 0.241125
0.887568 0.837383 0.258975
0.935586 0.836768 0.268898
0.984820 0.836837 0.305014
0.998720 0.831050 0.381633
0.998878 0.834341 0.393255
0.267148 0.688889 0.142204
0.288289 0.696673 0.145316
0.310726 0.711315 0.152223
0.336295 0.736277 0.159805
0.383735 0.750727 0.169664
0.457361 0.783781 0.184138
0.530461 0.806088 0.198388
0.614882 0.830198 0.215647
0.693715 0.850831 0.231569
0.766047 0.867362 0.245565
0.837931 0.882056 0.258778
0.903902 0.892832 0.272346
0.951793 0.889537 0.278796
0.996642 0.882810 0.364249
0.999310 0.877329 0.396940
0.999608 0.876744 0.410445
0.289902 0.735896 0.156896
0.306729 0.737241 0.157244
0.334319 0.760463 0.166687
0.352104 0.774339 0.172545
0.402022 0.802464 0.184986
0.476820 0.829227 0.201333
0.551754 0.853555 0.216287
0.633803 0.877747 0.234396
0.709750 0.896341 0.249853
0.776790 0.910719 0.263062
0.849142 0.925231 0.277750
0.917484 0.938970 0.291186
0.964631 0.932804 0.287433
0.998586 0.926419 0.413667
0.999820 0.913129 0.407778
1.000007 0.914078 0.430836
0.325950 0.825611 0.176746
0.344011 0.829093 0.178304
0.373802 0.856036 0.189598
0.396110 0.876366 0.198098
0.458199 0.911879 0.214581
0.538516 0.937370 0.232404
0.621207 0.961304 0.251384
0.706866 0.984067 0.271367
0.778025 1.012445 0.287225
0.842348 1.026845 0.301444
0.907474 1.038030 0.316652
0.966962 1.053309 0.330802
0.999682 1.055513 0.328547
1.036430 1.046893 0.452204
1.032853 1.036270 0.457346
1.030119 1.030468 0.483257
-0.141787 -0.366063 -0.084097
-0.148236 -0.370030 -0.085701
-0.152496 -0.378488 -0.088357
-0.148659 -0.389766 -0.091268
-0.138234 -0.402399 -0.095484
-0.141024 -0.415018 -0.102239
-0.132203 -0.426634 -0.108216
-0.108867 -0.436327 -0.113209
0.160731 -0.442631 -0.112143
0.340109 -0.446880 -0.110052
0.476968 -0.448133 -0.099611
0.561830 -0.444490 -0.081621
0.644662 -0.437474 -0.080961
0.711566 -0.423244 -0.100950
0.786444 -0.406116 -0.097168
0.842025 -0.391325 -0.070553
0.023213 0.020554 0.027042
0.042792 0.037742 0.036525
0.076951 0.050533 0.047181
0.119682 0.066831 0.056181
0.164637 0.076891 0.064344
0.207351 0.089379 0.071961
0.250211 0.102861 0.079722
0.322288 0.104482 0.080421
0.403930 0.112733 0.083715
0.502169 0.124599 0.092037
0.595138 0.145617 0.107543
0.679353 0.169743 0.123362
0.748966 0.196593 0.139979
0.811313 0.224674 0.160609
0.854030 0.242369 0.172924
0.862470 0.242258 0.173108
0.043497 0.065885 0.046715
0.060079 0.081015 0.052234
0.092526 0.088178 0.057741
0.142941 0.104479 0.062385
0.178066 0.114670 0.069185
0.218827 0.126664 0.078318
0.278348 0.136021 0.080561
0.356587 0.137903 0.078983
0.444165 0.145306 0.084295
0.531678 0.159274 0.095023
0.611018 0.176600 0.108162
0.689531 0.197694 0.124976
0.739077 0.211522 0.137063
0.796422 0.234211 0.155782
0.841496 0.250010 0.168567
0.853165 0.250721 0.169427
0.056424 0.115040 0.059685
0.073260 0.125662 0.062073
0.114254 0.132215 0.064479
0.165630 0.141700 0.059426
0.236374 0.156848 0.041283
0.242814 0.166142 0.078905
0.305638 0.170143 0.076497
0.382131 0.176608 0.077606
0.462647 0.185107 0.083897
0.549086 0.200365 0.096350
0.615274 0.215874 0.108746
0.686867 0.235825 0.128133
0.748178 0.253986 0.143655
0.802769 0.267945 0.158858
0.855520 0.285007 0.174733
0.880175 0.298348 0.181931
0.063994 0.158460 0.067311
0.084849 0.168519 0.070647
0.139991 0.179339 0.067446
0.205625 0.186615 0.042042
0.254801 0.195646 0.030450
0.260251 0.207453 0.076292
0.328546 0.214408 0.074195
0.404676 0.222566 0.078408
0.482175 0.233258 0.085768
0.563142 0.248468 0.098963
0.629736 0.263772 0.114492
0.704190 0.282606 0.133430
0.764940 0.298084 0.149117
0.825209 0.319175 0.169125
0.872834 0.332669 0.183467
0.905543 0.353280 0.194863
0.071697 0.200090 0.074748
0.099885 0.214433 0.080043
0.145949 0.221506 0.082074
0.194408 0.237615 0.071415
0.220537 0.250315 0.076249
0.275835 0.260059 0.075039
0.345115 0.270464 0.074959
0.420994 0.281251 0.080844
0.500289 0.293726 0.090152
0.579270 0.311114 0.107062
0.648758 0.322990 0.122101
0.720270 0.343141 0.143737
0.789644 0.358748 0.161914
0.847637 0.379455 0.182511
0.896712 0.391965 0.196662
0.931768 0.410225 0.209742
0.081828 0.249059 0.083118
0.109201 0.259589 0.084739
0.152575 0.278966 0.087629
0.186943 0.294122 0.080172
0.231320 0.307112 0.074624
0.292270 0.318755 0.076026
0.360766 0.330288 0.076110
0.437714 0.344695 0.084527
0.516490 0.359582 0.099209
0.593636 0.372979 0.115808
0.672696 0.391949 0.134601
0.749789 0.407069 0.153058
0.807169 0.420813 0.170939
0.871445 0.444835 0.197093
0.915250 0.455936 0.210506
0.951315 0.474825 0.227311
0.091787 0.293297 0.090921
0.117140 0.321642 0.085489
0.150338 0.345902 0.082615
0.195378 0.357940 0.079652
0.247930 0.375859 0.080684
0.312310 0.390943 0.083555
0.381747 0.402054 0.085272
0.462378 0.418331 0.097324
0.544857 0.434960 0.114242
0.625816 0.450589 0.132458
0.704390 0.469999 0.154878
0.776518 0.488452 0.176198
0.836834 0.502230 0.195931
0.896581 0.516907 0.214338
0.939124 0.526477 0.226328
0.972835 0.547162 0.256771
0.105272 0.357668 0.092175
0.141330 0.390818 0.087786
0.169433 0.416041 0.089590
0.210907 0.430097 0.089888
0.267978 0.446106 0.091233
0.333561 0.462089 0.095786
0.405773 0.476544 0.102570
0.486050 0.493649 0.113810
0.571895 0.511936 0.131887
0.653916 0.530987 0.152499
0.732273 0.550320 0.174931
0.803619 0.564522 0.195195
0.865370 0.579243 0.215666
0.918729 0.589426 0.232353
0.960001 0.596830 0.246455
0.985498 0.611757 0.288630
0.135347 0.437657 0.095505
0.170567 0.466056 0.095959
0.197692 0.484785 0.098730
0.231504 0.497886 0.101146
0.286834 0.514673 0.105376
0.358607 0.536519 0.114207
0.433499 0.553986 0.124935
0.516788 0.573573 0.139022
0.604518 0.595815 0.155456
0.687918 0.614115 0.176022
0.765065 0.631095 0.196946
0.834180 0.644614 0.214004
0.895872 0.657446 0.237224
0.943273 0.661161 0.248222
0.979397 0.669045 0.281861
0.996004 0.684633 0.345507
0.168374 0.501492 0.107327
0.202746 0.535576 0.110625
0.228932 0.553423 0.113575
0.252069 0.566606 0.116882
0.309240 0.581201 0.122527
0.385116 0.603686 0.134710
0.462932 0.626606 0.148703
0.547171 0.648408 0.163667
0.632258 0.668114 0.178328
0.716053 0.688797 0.195825
0.790648 0.702578 0.215789
0.858475 0.713369 0.235139
0.913349 0.720214 0.253504
0.964965 0.726027 0.266562
0.992374 0.732911 0.334317
0.996632 0.749597 0.370181
0.203104 0.569045 0.124115
0.235122 0.602708 0.128760
0.256413 0.612662 0.127968
0.279461 0.631901 0.135620
0.334491 0.650307 0.144536
0.410782 0.672226 0.156613
0.491251 0.695726 0.171825
0.576369 0.718711 0.187522
0.664379 0.743062 0.204622
0.748027 0.763623 0.219323
0.817425 0.775021 0.237888
0.885806 0.785311 0.257074
0.937071 0.786723 0.270977
0.981484 0.788797 0.301062
0.997537 0.792634 0.380171
0.997995 0.802077 0.390608
0.231366 0.624206 0.138092
0.262154 0.656725 0.143582
0.286172 0.672510 0.145640
0.307473 0.686247 0.153918
0.357443 0.710606 0.162977
0.439567 0.733083 0.180348
0.518297 0.757998 0.193168
0.599778 0.778960 0.207578
0.685061 0.801899 0.224591
0.764056 0.819343 0.238734
0.838237 0.834555 0.256637
0.903154 0.840578 0.274014
0.952770 0.843763 0.283004
0.993634 0.838213 0.349926
0.998465 0.840043 0.394395
0.999142 0.847458 0.412073
0.260838 0.683080 0.155734
0.293355 0.716451 0.161561
0.313169 0.723500 0.164296
0.332105 0.740895 0.169567
0.375866 0.760153 0.179019
0.459210 0.788248 0.195326
0.539555 0.811896 0.212282
0.622926 0.835547 0.228761
0.704752 0.857087 0.245438
0.781069 0.873724 0.260144
0.854380 0.890088 0.272976
0.917775 0.895409 0.289875
0.967818 0.891709 0.292001
0.997814 0.889492 0.409302
0.999413 0.886556 0.409227
0.999767 0.888699 0.430356
0.286267 0.732254 0.169488
0.309602 0.751987 0.170559
0.333822 0.766624 0.176254
0.356037 0.788219 0.184934
0.389096 0.806504 0.195200
0.475596 0.832557 0.211344
0.556682 0.856227 0.228271
0.637422 0.879058 0.244797
0.718045 0.899617 0.262002
0.795024 0.917163 0.278394
0.865625 0.931175 0.291367
0.934533 0.942258 0.304754
0.981458 0.937345 0.310014
0.999622 0.929096 0.422759
0.999836 0.926021 0.423613
1.000041 0.923665 0.446703
0.320566 0.819768 0.191601
0.350529 0.850567 0.197409
0.374402 0.865399 0.201160
0.399916 0.885665 0.211844
0.439305 0.912158 0.222879
0.536040 0.945388 0.246214
0.622753 0.968849 0.265236
0.706920 1.004462 0.285529
0.781096 1.024704 0.303770
0.849629 1.040810 0.320155
0.917574 1.055687 0.337417
0.973278 1.064230 0.348466
1.011387 1.069380 0.362523
1.037807 1.056563 0.463441
1.033327 1.048625 0.471929
1.029567 1.039876 0.503553
-0.141330 -0.367105 -0.086359
-0.146886 -0.374865 -0.085409
-0.149264 -0.383712 -0.084396
-0.143319 -0.393057 -0.083152
-0.122908 -0.404680 -0.082887
-0.124317 -0.417851 -0.088073
-0.113386 -0.429572 -0.089297
0.083607 -0.439555 -0.090083
0.282696 -0.446717 -0.088165
0.409196 -0.451829 -0.082901
0.497108 -0.452651 -0.071324
0.570797 -0.449703 -0.048022
0.640995 -0.442845 -0.056230
0.716629 -0.429016 -0.079185
0.793072 -0.409881 -0.062727
0.845016 -0.396014 0.023644
0.035375 0.043465 0.051658
0.056848 0.052821 0.060248
0.087438 0.060204 0.068118
0.129358 0.073096 0.078346
0.172606 0.089002 0.087903
0.212664 0.100445 0.097778
0.270183 0.106718 0.103019
0.354099 0.101557 0.101899
0.442931 0.110043 0.106385
0.530745 0.125788 0.114452
0.612252 0.144736 0.126702
0.689000 0.173011 0.143494
0.750106 0.195309 0.158170
0.803432 0.220466 0.173307
0.846974 0.238215 0.185165
0.843022 0.231327 0.181207
0.046655 0.075497 0.063876
0.066315 0.087724 0.071984
0.098238 0.097182 0.079534
0.142973 0.110658 0.086479
0.182293 0.125154 0.096511
0.233443 0.135326 0.103100
0.301352 0.134714 0.102271
0.380790 0.135226 0.100089
0.462806 0.145860 0.107234
0.544603 0.161587 0.118197
0.619658 0.179001 0.131829
0.694976 0.202571 0.148161
0.753097 0.216012 0.159952
0.812370 0.239839 0.176754
0.859525 0.259160 0.190340
0.879231 0.262923 0.194908
0.059650 0.123795 0.078433
0.078825 0.134320 0.084909
0.119286 0.140453 0.093014
0.158631 0.155738 0.097626
0.217400 0.161166 0.083234
0.263085 0.168597 0.095632
0.319188 0.166835 0.095138
0.397270 0.175498 0.098970
0.473843 0.186392 0.106606
0.556067 0.202190 0.119581
0.628866 0.219001 0.131174
0.698769 0.239920 0.150679
0.764672 0.257102 0.162670
0.818962 0.274921 0.179967
0.863988 0.290839 0.193809
0.891279 0.304266 0.202934
0.066715 0.164861 0.089067
0.088232 0.176733 0.094305
0.135098 0.188458 0.103998
0.177184 0.190652 0.095891
0.262077 0.204813 0.040556
0.292770 0.206156 0.073434
0.335643 0.213075 0.093714
0.413857 0.225034 0.100499
0.491418 0.236403 0.109778
0.572059 0.253244 0.124771
0.647057 0.268832 0.139451
0.713939 0.287970 0.157357
0.775881 0.306996 0.172031
0.836125 0.322395 0.186640
0.877961 0.339586 0.201257
0.913662 0.360485 0.215072
0.076477 0.209382 0.100182
0.106071 0.225779 0.107241
0.142839 0.237142 0.109333
0.194063 0.248180 0.087463
0.261598 0.256404 0.052948
0.279694 0.261737 0.088869
0.348989 0.271826 0.095912
0.427559 0.284402 0.104390
0.506436 0.297686 0.115480
0.588446 0.315639 0.132084
0.661310 0.330626 0.145498
0.734698 0.349944 0.163627
0.795080 0.366424 0.182381
0.851944 0.385515 0.198045
0.894643 0.396203 0.209258
0.937506 0.422979 0.228876
0.089496 0.258801 0.111516
0.107568 0.276956 0.107621
0.125139 0.293818 0.096982
0.177772 0.301895 0.098299
0.224061 0.311584 0.093368
0.289559 0.321561 0.094497
0.360754 0.332892 0.098642
0.442135 0.348592 0.109978
0.526239 0.365369 0.124764
0.606319 0.380642 0.139314
0.683105 0.399650 0.155166
0.754639 0.417211 0.175711
0.816825 0.431210 0.189489
0.871623 0.447675 0.209447
0.919078 0.463108 0.224708
0.956607 0.484753 0.244502
0.093029 0.312146 0.114031
0.114937 0.340156 0.102474
0.140027 0.357641 0.100446
0.184684 0.366722 0.101013
0.243144 0.381464 0.101021
0.311065 0.393829 0.106074
0.383463 0.406617 0.111040
0.468198 0.423794 0.122172
0.552135 0.442630 0.137858
0.632872 0.458611 0.153163
0.712685 0.480220 0.175905
0.785415 0.497739 0.192466
0.845807 0.510845 0.211176
0.900674 0.525622 0.229980
0.941880 0.533087 0.239954
0.976403 0.556204 0.273469
0.109511 0.386351 0.111287
0.139954 0.409874 0.105881
0.162882 0.424046 0.103415
0.200205 0.438966 0.110172
0.259013 0.448636 0.112295
0.332339 0.466881 0.119187
0.406758 0.481050 0.126879
0.492074 0.499380 0.136240
0.577124 0.518310 0.151644
0.660255 0.537366 0.170007
0.738717 0.556020 0.189822
0.809901 0.570780 0.210283
0.872462 0.585497 0.227675
0.922863 0.596448 0.243269
0.964052 0.605560 0.262917
0.989490 0.624300 0.310633
0.134327 0.445554 0.114684
0.169524 0.478335 0.115071
0.196202 0.487182 0.118734
0.220151 0.504632 0.122873
0.280395 0.519762 0.127694
0.359338 0.542612 0.138132
0.435564 0.559240 0.146004
0.523225 0.580757 0.158228
0.611046 0.602813 0.172747
0.694860 0.621217 0.192123
0.772595 0.641021 0.211173
0.841015 0.651342 0.232337
0.901110 0.663599 0.249472
0.949249 0.668341 0.262522
0.983086 0.678041 0.301529
0.995526 0.693148 0.360205
0.168061 0.508634 0.128098
0.201610 0.543480 0.129646
0.230869 0.559629 0.136804
0.250454 0.570968 0.138225
0.300948 0.588311 0.146881
0.384883 0.608540 0.155398
0.463619 0.631096 0.166658
0.552511 0.654045 0.179513
0.638466 0.675415 0.193871
0.722022 0.695342 0.210285
0.799185 0.711385 0.231894
0.865396 0.723220 0.249913
0.924131 0.730465 0.268923
0.968663 0.734939 0.286164
0.995550 0.742375 0.358069
0.996656 0.753748 0.380419
0.202605 0.573024 0.143372
0.234184 0.606049 0.146788
0.258810 0.620281 0.150724
0.281006 0.632644 0.156292
0.318854 0.647285 0.161947
0.408403 0.678288 0.173363
0.491547 0.699753 0.186992
0.580782 0.725301 0.202779
0.668722 0.748497 0.218841
0.753403 0.771038 0.234307
0.825775 0.780528 0.252675
0.889251 0.787482 0.269388
0.942629 0.794361 0.283347
0.984939 0.794720 0.323752
0.997555 0.801017 0.391895
0.998224 0.811044 0.405731
0.230892 0.628754 0.158683
0.259513 0.657138 0.160507
0.288443 0.676957 0.168754
0.310480 0.690701 0.173961
0.341654 0.711361 0.178444
0.434884 0.738289 0.193554
0.518280 0.762036 0.207582
0.604613 0.786248 0.222716
0.689014 0.807371 0.238266
0.768161 0.825593 0.252894
0.844145 0.840122 0.267862
0.908689 0.846605 0.287867
0.957897 0.847154 0.298837
0.996425 0.848177 0.381231
0.998604 0.847749 0.405577
0.999340 0.856694 0.428850
0.262864 0.689141 0.176113
0.291986 0.717744 0.179429
0.314796 0.730237 0.183275
0.337957 0.742933 0.191194
0.361055 0.759843 0.194704
0.449991 0.790845 0.208009
0.537938 0.814804 0.225221
0.626455 0.841481 0.242909
0.706872 0.861307 0.258289
0.784708 0.878754 0.273559
0.860000 0.892065 0.285557
0.925097 0.902819 0.304045
0.974309 0.900288 0.308929
0.998370 0.897599 0.419839
0.999495 0.894979 0.422531
0.999901 0.896763 0.446307
0.285892 0.734822 0.188606
0.309194 0.754319 0.189422
0.332686 0.768548 0.194975
0.358627 0.788284 0.203166
0.375649 0.803275 0.203541
0.463209 0.832791 0.221451
0.553385 0.858864 0.240122
0.637056 0.882621 0.256920
0.718056 0.903362 0.273961
0.797957 0.924489 0.293586
0.867835 0.937369 0.307237
0.934988 0.949074 0.320575
0.985408 0.947888 0.328382
0.999880 0.937823 0.430893
0.999981 0.934687 0.436448
1.000584 0.931316 0.463560
0.321890 0.825204 0.215527
0.351806 0.854714 0.222422
0.377621 0.874591 0.229358
0.408939 0.899781 0.240732
0.433203 0.921040 0.246296
0.521152 0.951999 0.265983
0.615483 0.977356 0.283808
0.699384 1.013953 0.301076
0.777009 1.034624 0.320077
0.847564 1.050581 0.336733
0.915060 1.063784 0.351388
0.969649 1.071711 0.363478
1.017210 1.078845 0.386159
1.038644 1.065643 0.473178
1.032745 1.056061 0.491738
1.029477 1.049584 0.531134
-0.141394 -0.369527 -0.078922
-0.143907 -0.377414 -0.072636
-0.144480 -0.387346 -0.070685
-0.131432 -0.397304 -0.063203
-0.105648 -0.408369 -0.052280
-0.095979 -0.420470 -0.044767
0.081271 -0.432504 -0.005268
0.218600 -0.443238 0.016060
0.344720 -0.450727 0.042019
0.440597 -0.454604 0.053303
0.501883 -0.455935 0.062470
0.578349 -0.453433 0.077531
0.642971 -0.447083 0.076682
0.724076 -0.430717 0.068255
0.798206 -0.413259 0.068204
0.844205 -0.401235 0.075759
0.043946 0.055819 0.080130
0.066536 0.062933 0.089069
0.095906 0.072878 0.094881
0.140725 0.082684 0.105987
0.178664 0.095699 0.115734
0.229721 0.101278 0.121993
0.298301 0.097281 0.127594
0.377270 0.096167 0.128858
0.458721 0.108378 0.134370
0.545036 0.124527 0.141676
0.625687 0.144098 0.153844
0.692486 0.173177 0.167750
0.739412 0.188737 0.175623
0.800259 0.215771 0.191317
0.841626 0.235511 0.202946
0.830772 0.224028 0.199874
0.055733 0.092751 0.092934
0.078608 0.102518 0.101144
0.110618 0.112253 0.109212
0.150975 0.121384 0.114167
0.191974 0.130922 0.121412
0.248660 0.131380 0.127067
0.316876 0.130216 0.127185
0.390968 0.132061 0.129370
0.471086 0.145876 0.136888
0.552411 0.162822 0.146483
0.619927 0.178942 0.156694
0.695322 0.199194 0.169984
0.754794 0.218128 0.183842
0.808369 0.235355 0.194625
0.855823 0.256265 0.210042
0.875868 0.259903 0.216557
0.062675 0.130141 0.102853
0.087373 0.143898 0.111804
0.125795 0.154623 0.118414
0.159630 0.158994 0.121588
0.200614 0.161012 0.123385
0.257541 0.166819 0.127246
0.322011 0.169672 0.127239
0.397414 0.181376 0.133422
0.478579 0.192813 0.140403
0.559565 0.210618 0.152718
0.631672 0.224496 0.162804
0.702281 0.248033 0.180581
0.762236 0.266383 0.196074
0.818460 0.285371 0.208529
0.860691 0.299324 0.221021
0.895048 0.318880 0.236424
0.072634 0.175638 0.115538
0.096347 0.185238 0.121656
0.130114 0.194515 0.126927
0.162142 0.195417 0.124255
0.204591 0.197679 0.123835
0.300652 0.207427 0.088508
0.339021 0.214891 0.123764
0.413337 0.228288 0.134929
0.493185 0.242316 0.144632
0.574043 0.259865 0.157508
0.646954 0.279653 0.172293
0.716089 0.296809 0.187329
0.778592 0.316203 0.203625
0.838766 0.336458 0.218734
0.878724 0.352390 0.232926
0.918622 0.373910 0.248157
0.085141 0.222089 0.128744
0.101090 0.236181 0.129955
0.124219 0.248294 0.130375
0.165141 0.251967 0.127560
0.261381 0.254125 0.060357
0.329289 0.260914 0.053832
0.392215 0.272048 0.080075
0.428076 0.289332 0.139428
0.508843 0.302924 0.150068
0.590423 0.320807 0.164806
0.666050 0.342207 0.180667
0.737851 0.358597 0.197005
0.795192 0.374002 0.211052
0.854805 0.396110 0.231246
0.899914 0.413096 0.245367
0.940146 0.431958 0.260763
0.087240 0.272270 0.134803
0.104744 0.290760 0.131280
0.125703 0.300156 0.127939
0.162438 0.304035 0.124321
0.238710 0.311821 0.106072
0.344080 0.324109 0.055032
0.413265 0.336345 0.073314
0.441515 0.352161 0.143986
0.528424 0.371211 0.159237
0.611624 0.389823 0.175818
0.687216 0.408387 0.193721
0.759710 0.426518 0.210958
0.824997 0.448396 0.228501
0.875051 0.461575 0.245068
0.922023 0.475473 0.255968
0.961886 0.497928 0.279975
0.092278 0.333820 0.134562
0.115129 0.351236 0.129717
0.139745 0.364665 0.128648
0.168155 0.372532 0.127492
