luts/Colorify Cinematic Standard LUT.cube
LUT_3D_SIZE 6
0.024591 0.024165 0.022764
0.096697 0.041224 0.040544
0.225300 0.059703 0.054902
0.374281 0.084708 0.068947
0.707972 0.168963 0.121669
0.892292 0.247565 0.178042
0.054484 0.104131 0.048795
0.150969 0.136690 0.053179
0.284626 0.170977 0.066637
0.505363 0.200359 0.078076
0.706799 0.246183 0.122588
0.848438 0.284795 0.161659
0.081266 0.237230 0.063434
0.193018 0.281563 0.069572
0.349714 0.322179 0.064753
0.569700 0.367014 0.102791
0.780305 0.417092 0.155585
0.936548 0.462547 0.207891
0.131400 0.404779 0.080991
0.240955 0.482914 0.085153
0.426515 0.539189 0.112904
0.669203 0.600906 0.158616
0.877129 0.643629 0.217379
0.992218 0.665651 0.310612
0.232874 0.623666 0.122874
0.307528 0.673798 0.141467
0.509604 0.752481 0.179962
0.749389 0.812172 0.224173
0.935586 0.836768 0.268898
0.998878 0.834341 0.393255
0.325950 0.825611 0.176746
0.396110 0.876366 0.198098
0.621207 0.961304 0.251384
0.842348 1.026845 0.301444
0.999682 1.055513 0.328547
1.030119 1.030468 0.483257
-0.141394 -0.369527 -0.078922
-0.131432 -0.397304 -0.063203
0.081271 -0.432504 -0.005268
0.440597 -0.454604 0.053303
0.642971 -0.447083 0.076682
0.844205 -0.401235 0.075759
0.062675 0.130141 0.102853
0.159630 0.158994 0.121588
0.322011 0.169672 0.127239
0.559565 0.210618 0.152718
0.762236 0.266383 0.196074
0.895048 0.318880 0.236424
0.087240 0.272270 0.134803
0.162438 0.304035 0.124321
0.413265 0.336345 0.073314
0.611624 0.389823 0.175818
0.824997 0.448396 0.228501
0.961886 0.497928 0.279975
0.141851 0.454345 0.145570
0.219686 0.509324 0.150517
0.440473 0.567188 0.183372
0.702298 0.630948 0.227807
0.906698 0.672595 0.273864
0.995745 0.708947 0.379464
0.231664 0.634554 0.183804
0.315140 0.699162 0.203236
0.519698 0.768511 0.242257
0.771446 0.832516 0.274115
0.961480 0.855053 0.310902
0.999588 0.865431 0.448194
0.321341 0.828622 0.243450
0.418118 0.913133 0.278298
0.615791 1.002816 0.332411
0.848255 1.060412 0.372156
1.004306 1.083500 0.388001
1.029921 1.058913 0.573839
-0.138975 -0.377088 0.110646
-0.111119 -0.410368 0.141513
0.244086 -0.445392 0.187491
0.442585 -0.464890 0.174198
0.669151 -0.452549 0.203059
0.826700 -0.418965 0.156312
0.077846 0.162241 0.202377
0.143751 0.161029 0.232216
0.325159 0.168422 0.239447
0.562601 0.218245 0.267134
0.763957 0.275436 0.298148
0.903737 0.325475 0.330754
0.087443 0.288992 0.223441
0.153972 0.318248 0.244121
0.363189 0.353307 0.262260
0.613809 0.421972 0.308843
0.822616 0.486479 0.356458
0.972256 0.558029 0.411011
0.153353 0.464244 0.246831
0.240065 0.529495 0.276080
0.449260 0.585171 0.321114
0.702682 0.652113 0.364915
0.917107 0.716172 0.421000
0.997460 0.763449 0.504928
0.244658 0.649888 0.288450
0.334860 0.717040 0.323026
0.507872 0.779866 0.369936
0.778360 0.854476 0.423991
0.963163 0.886170 0.453513
1.000041 0.905440 0.577358
0.341781 0.854231 0.359141
0.453755 0.944394 0.405379
0.606636 1.024549 0.468705
0.860460 1.077886 0.531108
0.995714 1.092291 0.543572
1.029614 1.078581 0.710800
-0.134211 -0.383323 0.229562
0.034640 -0.423056 0.364366
0.262346 -0.452663 0.341096
0.454550 -0.470588 0.334213
0.688126 -0.454735 0.361728
0.875967 -0.414037 0.344384
0.092499 0.157209 0.349795
0.170112 0.166311 0.373184
0.334982 0.191081 0.383007
0.566634 0.228992 0.403763
0.767272 0.284063 0.424702
0.915759 0.340659 0.451786
0.113767 0.295130 0.337910
0.192128 0.333108 0.382347
0.372718 0.384260 0.404525
0.618669 0.440619 0.436926
0.834970 0.518236 0.481363
0.979937 0.590363 0.524265
0.178282 0.484283 0.374617
0.265518 0.548036 0.418450
0.414599 0.600904 0.447597
0.713470 0.684858 0.503331
0.919605 0.754948 0.556009
0.998833 0.815659 0.616718
0.266058 0.670988 0.415238
0.352354 0.733017 0.455004
0.454067 0.795186 0.488958
0.785719 0.875416 0.561130
0.958365 0.909225 0.584603
1.001420 0.930600 0.666166
0.355621 0.865543 0.464855
0.482235 0.968109 0.523432
0.593521 1.039955 0.572124
0.878560 1.088519 0.646531
0.992167 1.097793 0.651393
1.034363 1.089112 0.781246
0.064088 -0.390071 0.530723
0.140367 -0.430365 0.519556
0.290012 -0.457200 0.484006
0.474248 -0.469047 0.494061
0.739102 -0.451318 0.548492
0.646714 -0.463503 0.327381
0.127246 0.160594 0.443076
0.206034 0.185664 0.494629
0.332665 0.214624 0.505615
0.566157 0.250125 0.528251
0.765411 0.293036 0.547087
0.926419 0.356760 0.570101
0.150947 0.307564 0.451302
0.236605 0.356194 0.509788
0.338597 0.397586 0.527582
0.639681 0.483746 0.572324
0.845309 0.543730 0.605016
0.984780 0.617803 0.632546
0.215245 0.496964 0.495956
0.301801 0.559129 0.544014
0.389795 0.617741 0.572619
0.730768 0.721115 0.629697
0.921281 0.776838 0.662174
0.999640 0.838298 0.691387
0.292299 0.685584 0.542039
0.376233 0.749984 0.582099
0.475930 0.818752 0.617636
0.790254 0.893322 0.668299
0.955975 0.926019 0.691311
1.000923 0.950068 0.731851
0.377417 0.890060 0.562670
0.509485 0.986578 0.636352
0.606360 1.052693 0.672167
0.876174 1.095318 0.719623
0.989228 1.098529 0.728916
1.038838 1.095661 0.819975
0.165479 -0.395280 0.685489
0.166270 -0.435657 0.610217
0.258858 -0.461070 0.556406
0.486291 -0.464515 0.614435
0.486000 -0.472879 0.466093
0.700897 -0.460753 0.499375
0.157438 0.179351 0.517703
0.235546 0.218052 0.583220
0.295701 0.238373 0.607656
0.560626 0.291145 0.646542
0.773170 0.341802 0.677643
0.943454 0.398888 0.701946
0.185760 0.325630 0.540606
0.278842 0.383381 0.618097
0.350033 0.428353 0.649667
0.645731 0.529405 0.698153
0.854196 0.591871 0.730464
0.991285 0.658843 0.739006
0.238462 0.488844 0.581737
0.345611 0.580116 0.660362
0.435380 0.643691 0.694831
0.742507 0.760080 0.743970
0.924472 0.818913 0.765865
0.999984 0.861017 0.762853
0.315782 0.671545 0.640040
0.422153 0.761999 0.698067
0.522656 0.828773 0.731777
0.791131 0.906677 0.765151
0.960059 0.949151 0.770454
1.001693 0.958087 0.775886
0.388979 0.836447 0.680967
0.503865 0.928136 0.730048
0.596430 0.972874 0.756920
0.857681 1.007898 0.767723
0.971778 1.012298 0.775460
1.001090 1.015044 0.802788
